X:1
T:[ID 4-5ra]
T:[ID 4-5ra]
T:Bezeichnung standardisiert: Schwabisch [Sammelbezeichnung]; Angl In dieser Quelle auch als: Angeloise; Schwabisch
T:Urheber unbekannt Datum in der hier transkribierten schriftlichen Quelle: 1792
C:Urheber unbekannt
C:Datum in der hier transkribierten schriftlichen Quelle: 1792
L:1/8
M:2/4
K:D
V:1 treble 
V:1
 a2 f2 | d3 A | BBcc | d/c/d/e/ d2 | a2 f2 | d3 A | BBcc | d2 D2 :: AAAA | a2 f2 | AAAA | g2 e2 | %12
 a2 f2 | d3 A | BBcc | d2 D2 :| %16

